dist/img/footer/copy.svg

<svg width="123" height="39" viewBox="0 0 123 39" fill="none" xmlns="http://www.w3.org/2000/svg">
<path d="M41.1145 27.4214H39.1641V32.6325H39.715V30.9873H41.1145C42.4396 30.9873 43.2437 30.3173 43.2437 29.2081C43.2437 28.0914 42.4396 27.4214 41.1145 27.4214ZM41.0996 30.5034H39.715V27.8978H41.0996C42.1419 27.8978 42.6928 28.3743 42.6928 29.2081C42.6928 30.027 42.1419 30.5034 41.0996 30.5034Z" fill="#9F9F9F"/>
<path d="M45.5612 28.6869C44.9433 28.6869 44.3627 28.8805 43.9681 29.2155L44.2063 29.6101C44.5264 29.3272 45.0029 29.1485 45.5091 29.1485C46.2387 29.1485 46.6183 29.5133 46.6183 30.1833V30.4215H45.3751C44.251 30.4215 43.8639 30.9277 43.8639 31.5307C43.8639 32.2082 44.4073 32.6698 45.2932 32.6698C45.9409 32.6698 46.4025 32.4241 46.6407 32.0221V32.6325H47.1469V30.2056C47.1469 29.1932 46.5737 28.6869 45.5612 28.6869ZM45.3751 32.2529C44.7498 32.2529 44.385 31.97 44.385 31.5159C44.385 31.1139 44.6307 30.8161 45.39 30.8161H46.6183V31.4563C46.4099 31.97 45.9707 32.2529 45.3751 32.2529Z" fill="#9F9F9F"/>
<path d="M50.3798 30.5927C50.8339 30.4438 51.1391 30.1312 51.1391 29.7217C51.1391 29.0815 50.4542 28.6721 49.5609 28.6721C49.0845 28.6721 48.5931 28.7837 48.1092 29.0368L48.2581 29.4463C48.675 29.2304 49.1068 29.1262 49.5088 29.1262C50.1341 29.1262 50.5957 29.3644 50.5957 29.7962C50.5957 30.1833 50.1937 30.4141 49.6205 30.4141H48.9802V30.8012H49.6502C50.3054 30.8012 50.7074 31.0469 50.7074 31.4637C50.7074 31.9402 50.1788 32.2231 49.4716 32.2231C48.9951 32.2231 48.4889 32.0742 48.1241 31.7987L47.9454 32.1933C48.3623 32.5134 48.9356 32.6772 49.4939 32.6772C50.4691 32.6772 51.2508 32.2156 51.2508 31.5084C51.2508 31.0469 50.9307 30.7193 50.3798 30.5927Z" fill="#9F9F9F"/>
<path d="M54.4682 28.6869C53.8205 28.6869 53.2771 28.9698 52.9569 29.4909V28.7167H52.4507V34.0768H52.9793V31.8955C53.3068 32.4018 53.8428 32.6698 54.4682 32.6698C55.5848 32.6698 56.4186 31.8657 56.4186 30.6746C56.4186 29.4909 55.5848 28.6869 54.4682 28.6869ZM54.4309 32.2008C53.5972 32.2008 52.9718 31.5903 52.9718 30.6746C52.9718 29.7664 53.5972 29.1485 54.4309 29.1485C55.2573 29.1485 55.8901 29.7664 55.8901 30.6746C55.8901 31.5903 55.2573 32.2008 54.4309 32.2008Z" fill="#9F9F9F"/>
<path d="M58.8799 28.6869C58.262 28.6869 57.6814 28.8805 57.2868 29.2155L57.525 29.6101C57.8451 29.3272 58.3216 29.1485 58.8278 29.1485C59.5574 29.1485 59.937 29.5133 59.937 30.1833V30.4215H58.6938C57.5697 30.4215 57.1826 30.9277 57.1826 31.5307C57.1826 32.2082 57.726 32.6698 58.6119 32.6698C59.2596 32.6698 59.7211 32.4241 59.9594 32.0221V32.6325H60.4656V30.2056C60.4656 29.1932 59.8924 28.6869 58.8799 28.6869ZM58.6938 32.2529C58.0685 32.2529 57.7037 31.97 57.7037 31.5159C57.7037 31.1139 57.9494 30.8161 58.7087 30.8161H59.937V31.4563C59.7286 31.97 59.2894 32.2529 58.6938 32.2529Z" fill="#9F9F9F"/>
<path d="M63.771 28.8135C63.034 28.8135 62.4459 29.1783 62.1332 29.7813C62.1853 28.5306 62.6916 27.9723 63.8008 27.7266L65.4535 27.3469L65.3641 26.863L63.6072 27.265C62.2747 27.5777 61.627 28.3966 61.627 30.1014C61.627 31.6945 62.3566 32.6772 63.6742 32.6772C64.843 32.6772 65.647 31.8806 65.647 30.7267C65.647 29.5952 64.8728 28.8135 63.771 28.8135ZM63.6891 32.238C62.8553 32.238 62.2598 31.6201 62.2598 30.7416C62.2598 29.8706 62.8479 29.2899 63.6891 29.2899C64.5304 29.2899 65.111 29.8706 65.111 30.7416C65.111 31.6201 64.5229 32.238 63.6891 32.238Z" fill="#9F9F9F"/>
<path d="M68.3954 32.6698C69.5419 32.6698 70.3831 31.836 70.3831 30.6746C70.3831 29.5133 69.5419 28.6869 68.3954 28.6869C67.2489 28.6869 66.4003 29.5133 66.4003 30.6746C66.4003 31.836 67.2489 32.6698 68.3954 32.6698ZM68.3954 32.2008C67.5616 32.2008 66.9363 31.5903 66.9363 30.6746C66.9363 29.759 67.5616 29.1485 68.3954 29.1485C69.2292 29.1485 69.8471 29.759 69.8471 30.6746C69.8471 31.5903 69.2292 32.2008 68.3954 32.2008Z" fill="#9F9F9F"/>
<path d="M74.1218 28.7167H70.6303V29.1857H72.1118V32.6325H72.6403V29.1857H74.1218V28.7167Z" fill="#9F9F9F"/>
<path d="M77.7522 32.6325H78.3775L76.7248 30.6151L78.2658 28.7167H77.6926L76.3154 30.4364H75.4146V28.7167H74.886V32.6325H75.4146V30.8905H76.3079L77.7522 32.6325Z" fill="#9F9F9F"/>
<path d="M80.4864 28.6869C79.8686 28.6869 79.2879 28.8805 78.8933 29.2155L79.1315 29.6101C79.4517 29.3272 79.9281 29.1485 80.4343 29.1485C81.1639 29.1485 81.5436 29.5133 81.5436 30.1833V30.4215H80.3003C79.1762 30.4215 78.7891 30.9277 78.7891 31.5307C78.7891 32.2082 79.3325 32.6698 80.2184 32.6698C80.8661 32.6698 81.3277 32.4241 81.5659 32.0221V32.6325H82.0721V30.2056C82.0721 29.1932 81.4989 28.6869 80.4864 28.6869ZM80.3003 32.2529C79.675 32.2529 79.3102 31.97 79.3102 31.5159C79.3102 31.1139 79.5559 30.8161 80.3152 30.8161H81.5436V31.4563C81.3351 31.97 80.8959 32.2529 80.3003 32.2529Z" fill="#9F9F9F"/>
<path d="M87.0654 32.6698C87.7279 32.6698 88.2863 32.4018 88.5989 31.8955L88.2044 31.6275C87.9364 32.0221 87.5195 32.2008 87.0654 32.2008C86.2092 32.2008 85.5839 31.5977 85.5839 30.6746C85.5839 29.759 86.2092 29.1485 87.0654 29.1485C87.5195 29.1485 87.9364 29.3346 88.2044 29.7292L88.5989 29.4612C88.2863 28.9475 87.7279 28.6869 87.0654 28.6869C85.8966 28.6869 85.0479 29.5058 85.0479 30.6746C85.0479 31.8434 85.8966 32.6698 87.0654 32.6698Z" fill="#9F9F9F"/>
<path d="M90.9698 28.6869C90.3519 28.6869 89.7713 28.8805 89.3767 29.2155L89.6149 29.6101C89.935 29.3272 90.4115 29.1485 90.9177 29.1485C91.6473 29.1485 92.027 29.5133 92.027 30.1833V30.4215H90.7837C89.6596 30.4215 89.2725 30.9277 89.2725 31.5307C89.2725 32.2082 89.8159 32.6698 90.7018 32.6698C91.3495 32.6698 91.8111 32.4241 92.0493 32.0221V32.6325H92.5555V30.2056C92.5555 29.1932 91.9823 28.6869 90.9698 28.6869ZM90.7837 32.2529C90.1584 32.2529 89.7936 31.97 89.7936 31.5159C89.7936 31.1139 90.0393 30.8161 90.7986 30.8161H92.027V31.4563C91.8185 31.97 91.3793 32.2529 90.7837 32.2529Z" fill="#9F9F9F"/>
<path d="M95.7418 28.1584C96.4044 28.1584 96.8436 27.8159 96.8585 27.1906H96.4788C96.4639 27.5852 96.1662 27.8308 95.7418 27.8308C95.3175 27.8308 95.0197 27.5852 95.0123 27.1906H94.6326C94.6475 27.8159 95.0793 28.1584 95.7418 28.1584ZM93.9626 32.6325H94.439L97.0446 29.5207V32.6325H97.5732V28.7167H97.1042L94.4911 31.8285V28.7167H93.9626V32.6325Z" fill="#9F9F9F"/>
<path d="M101.842 28.7167H98.3509V29.1857H99.8324V32.6325H100.361V29.1857H101.842V28.7167Z" fill="#9F9F9F"/>
<path d="M103.954 28.6869C103.336 28.6869 102.756 28.8805 102.361 29.2155L102.599 29.6101C102.919 29.3272 103.396 29.1485 103.902 29.1485C104.632 29.1485 105.011 29.5133 105.011 30.1833V30.4215H103.768C102.644 30.4215 102.257 30.9277 102.257 31.5307C102.257 32.2082 102.8 32.6698 103.686 32.6698C104.334 32.6698 104.795 32.4241 105.034 32.0221V32.6325H105.54V30.2056C105.54 29.1932 104.967 28.6869 103.954 28.6869ZM103.768 32.2529C103.143 32.2529 102.778 31.97 102.778 31.5159C102.778 31.1139 103.024 30.8161 103.783 30.8161H105.011V31.4563C104.803 31.97 104.364 32.2529 103.768 32.2529Z" fill="#9F9F9F"/>
<g clip-path="url(#clip0)">
<path d="M47.7856 13.8525C46.957 13.0868 45.714 12.7388 44.1948 12.7388H39.0156V24.9903H41.7778V21.5098H44.1948C45.714 21.5098 46.957 21.0921 47.7856 20.3264C48.6143 19.5606 49.0286 18.4469 49.0286 16.985C49.0286 15.6624 48.6143 14.6183 47.7856 13.8525ZM45.783 18.6557C45.3687 19.0038 44.7472 19.2126 43.9876 19.2126H41.7088V15.0359H43.9876C44.7472 15.0359 45.3687 15.1752 45.783 15.5232C46.1974 15.8713 46.4045 16.3585 46.4045 17.0547C46.4045 17.7508 46.1974 18.3077 45.783 18.6557Z" fill="#F3F2F2"/>
<path d="M53.8638 12.7388H51.1016V24.9903H53.8638V12.7388Z" fill="#F3F2F2"/>
<path d="M67.5357 12.7388H64.2901L61.7351 16.4978L59.18 12.7388H56.0035L60.0777 18.7253L55.6582 24.9903H58.9038L61.7351 20.9529L64.5663 24.9903H67.881L63.4614 18.5861L67.5357 12.7388Z" fill="#F3F2F2"/>
<path d="M72.5083 19.9783H78.378V17.6812H72.5083V15.0359H78.9995V12.7388H69.7461V24.9903H79.2067V22.6931H72.5083V19.9783Z" fill="#F3F2F2"/>
<path d="M84.4536 12.7388H81.6914V24.9903H89.6328V22.6235H84.4536V12.7388Z" fill="#F3F2F2"/>
<path d="M94.3286 12.7388H91.5664V24.9903H94.3286V12.7388Z" fill="#F3F2F2"/>
<path d="M106.345 13.3654C105.378 12.8085 104.273 12.53 103.03 12.53C101.787 12.53 100.682 12.8085 99.7156 13.3654C98.7488 13.9223 97.9202 14.688 97.3677 15.6625C96.8153 16.6371 96.5391 17.6812 96.5391 18.8646C96.5391 20.048 96.8153 21.1618 97.3677 22.0667C97.9202 23.0413 98.7488 23.807 99.7156 24.3639C100.682 24.9208 101.787 25.1992 103.03 25.1992C104.273 25.1992 105.378 24.9208 106.345 24.3639C107.312 23.807 108.14 23.0413 108.693 22.0667C109.245 21.0922 109.521 20.048 109.521 18.8646C109.521 17.6812 109.245 16.6371 108.693 15.6625C108.14 14.688 107.381 13.9223 106.345 13.3654ZM106.276 20.8137C105.931 21.4402 105.516 21.8579 104.964 22.206C104.411 22.554 103.79 22.6932 103.099 22.6932C102.409 22.6932 101.787 22.4844 101.235 22.1363C100.682 21.7883 100.199 21.301 99.8537 20.7441C99.5084 20.1176 99.3703 19.4911 99.3703 18.795C99.3703 18.0989 99.5084 17.4028 99.8537 16.8459C100.199 16.2194 100.613 15.8017 101.235 15.4537C101.787 15.1056 102.409 14.9664 103.099 14.9664C103.79 14.9664 104.411 15.1056 104.964 15.4537C105.516 15.8017 106 16.289 106.276 16.8459C106.621 17.4724 106.759 18.0989 106.759 18.795C106.759 19.5607 106.621 20.2569 106.276 20.8137Z" fill="#F3F2F2"/>
<path d="M120.086 12.7388V20.6744L114.216 12.7388H111.73V24.9903H114.355V17.1243L120.224 24.9903H122.71V12.7388H120.086Z" fill="#F3F2F2"/>
<path d="M12.7062 3.96781L25.3433 11.3466V9.60631L12.7062 2.22754L0.0690553 9.53669L0 9.60631V11.3466L12.7062 3.96781Z" fill="#F3F2F2"/>
<path d="M27.7596 22.9716L29.2788 22.0667L29.2098 7.37877L16.5726 0L14.9844 0.904943L27.6905 8.28371L27.7596 22.9716Z" fill="#F3F2F2"/>
<path d="M5.3871 15.2449L3.86788 16.0802L3.79883 30.8377L16.4359 38.2165L16.505 38.2861L18.0242 37.3812L5.3871 29.9328V15.2449Z" fill="#F3F2F2"/>
<path d="M14.2254 7.58777L12.7062 6.75244L0.0690553 14.0616L0 14.1312V28.8191L1.58827 29.7241V14.9665L14.2254 7.58777Z" fill="#F3F2F2"/>
<path d="M31.5583 8.42285L31.6273 23.1804L18.9902 30.5592L20.4404 31.4641L33.0775 24.1549L33.1466 24.0853V9.39741V9.32779L31.5583 8.42285Z" fill="#F3F2F2"/>
<path d="M7.80273 26.8698V28.6797L20.5089 36.0584L20.578 35.9888L33.077 28.6101L33.146 28.5404V26.8002L20.5089 34.1789L7.80273 26.8698Z" fill="#F3F2F2"/>
<path d="M16.5033 23.1804L13.4648 25.1295V27.2179L16.5033 25.1991L19.6108 27.2179V25.1295L16.5033 23.1804Z" fill="#F3F2F2"/>
<path d="M13.4648 18.5164V20.5351L16.5033 22.5538L19.6108 20.5351V18.5164L16.5033 20.4655L13.4648 18.5164Z" fill="#F3F2F2"/>
<path d="M21.1994 11.6946L17.8848 13.226V16.9154L19.6111 18.0292V14.3398L22.9258 12.8084L21.1994 11.6946Z" fill="#F3F2F2"/>
<path d="M15.1914 13.226L11.8768 11.6946L10.1504 12.8084L13.465 14.3398V18.0292L15.1914 16.9154V13.226Z" fill="#F3F2F2"/>
<path d="M7.80273 21.5099L11.0483 23.0414L12.8438 21.9276L9.52912 20.3962V16.7068L7.80273 17.8206V21.5099Z" fill="#F3F2F2"/>
<path d="M25.3438 17.8206L23.5483 16.7068V20.3962L20.3027 21.9276L22.0291 23.0414L25.3438 21.5099V17.8206Z" fill="#F3F2F2"/>
</g>
<defs>
<clipPath id="clip0">
<rect width="122.918" height="38.2861" fill="white"/>
</clipPath>
</defs>
</svg>

<svg width="123" height="39" fill="none" xmlns="http://www.w3.org/2000/svg"><path d="M41.114 27.421h-1.95v5.212h.551v-1.646h1.4c1.325 0 2.129-.67 2.129-1.779 0-1.117-.804-1.787-2.13-1.787zm-.014 3.082h-1.385v-2.605H41.1c1.042 0 1.593.476 1.593 1.31 0 .819-.551 1.295-1.593 1.295zm4.461-1.816c-.618 0-1.198.194-1.593.528l.238.395c.32-.283.797-.462 1.303-.462.73 0 1.11.365 1.11 1.035v.239h-1.244c-1.124 0-1.511.506-1.511 1.109 0 .677.543 1.139 1.43 1.139.647 0 1.109-.246 1.347-.648v.61h.506v-2.426c0-1.013-.573-1.52-1.586-1.52zm-.186 3.566c-.625 0-.99-.283-.99-.737 0-.402.246-.7 1.005-.7h1.228v.64c-.208.514-.647.797-1.243.797zm5.005-1.66c.454-.15.76-.462.76-.871 0-.64-.686-1.05-1.58-1.05-.476 0-.967.112-1.45.365l.148.41c.417-.217.849-.32 1.25-.32.626 0 1.088.237 1.088.67 0 .386-.402.617-.975.617h-.64v.387h.67c.654 0 1.056.246 1.056.663 0 .476-.528.76-1.235.76-.477 0-.983-.15-1.348-.425l-.179.394c.417.32.99.484 1.549.484.975 0 1.757-.461 1.757-1.169 0-.461-.32-.789-.871-.915zm4.088-1.906c-.648 0-1.19.283-1.511.804v-.774h-.506v5.36h.528v-2.181c.328.506.864.774 1.49.774 1.116 0 1.95-.804 1.95-1.995 0-1.184-.834-1.988-1.95-1.988zm-.037 3.514c-.834 0-1.46-.61-1.46-1.526 0-.909.626-1.527 1.46-1.527.826 0 1.46.618 1.46 1.527 0 .915-.634 1.526-1.46 1.526zm4.449-3.514c-.618 0-1.199.194-1.593.528l.238.395c.32-.283.797-.462 1.303-.462.73 0 1.109.365 1.109 1.035v.239h-1.243c-1.124 0-1.511.506-1.511 1.109 0 .677.543 1.139 1.429 1.139.648 0 1.11-.246 1.347-.648v.61h.507v-2.426c0-1.013-.574-1.52-1.586-1.52zm-.186 3.566c-.626 0-.99-.283-.99-.737 0-.402.245-.7 1.005-.7h1.228v.64c-.208.514-.648.797-1.243.797zm5.077-3.439c-.737 0-1.325.364-1.638.967.052-1.25.559-1.809 1.668-2.054l1.653-.38-.09-.484-1.757.402c-1.332.313-1.98 1.132-1.98 2.836 0 1.594.73 2.576 2.047 2.576 1.169 0 1.973-.796 1.973-1.95 0-1.132-.774-1.913-1.876-1.913zm-.082 3.424c-.834 0-1.43-.618-1.43-1.496 0-.871.589-1.452 1.43-1.452s1.422.58 1.422 1.452c0 .878-.588 1.496-1.422 1.496zm4.706.432c1.147 0 1.988-.834 1.988-1.995 0-1.162-.841-1.988-1.988-1.988-1.146 0-1.995.826-1.995 1.988 0 1.161.849 1.995 1.995 1.995zm0-.47c-.833 0-1.459-.61-1.459-1.525 0-.916.626-1.527 1.46-1.527.833 0 1.451.611 1.451 1.527 0 .915-.618 1.526-1.452 1.526zm5.727-3.483H70.63v.469h1.482v3.447h.528v-3.447h1.482v-.47zm3.63 3.916h.626l-1.653-2.018 1.54-1.898h-.572l-1.378 1.72h-.9v-1.72h-.529v3.916h.529V30.89h.893l1.444 1.742zm2.734-3.946c-.617 0-1.198.194-1.593.528l.239.395c.32-.283.796-.462 1.302-.462.73 0 1.11.365 1.11 1.035v.239H80.3c-1.124 0-1.51.506-1.51 1.109 0 .677.542 1.139 1.428 1.139.648 0 1.11-.246 1.348-.648v.61h.506v-2.426c0-1.013-.573-1.52-1.586-1.52zm-.186 3.566c-.625 0-.99-.283-.99-.737 0-.402.246-.7 1.005-.7h1.229v.64c-.209.514-.648.797-1.244.797zm6.765.417c.663 0 1.221-.268 1.534-.775l-.395-.267c-.268.394-.684.573-1.139.573-.856 0-1.481-.603-1.481-1.526 0-.916.625-1.527 1.481-1.527.454 0 .871.187 1.14.581l.394-.268c-.313-.513-.871-.774-1.534-.774-1.168 0-2.017.819-2.017 1.988 0 1.168.849 1.995 2.017 1.995zm3.905-3.983c-.618 0-1.199.194-1.593.528l.238.395c.32-.283.797-.462 1.303-.462.73 0 1.109.365 1.109 1.035v.239h-1.243c-1.124 0-1.512.506-1.512 1.109 0 .677.544 1.139 1.43 1.139.648 0 1.11-.246 1.347-.648v.61h.506v-2.426c0-1.013-.573-1.52-1.585-1.52zm-.186 3.566c-.626 0-.99-.283-.99-.737 0-.402.245-.7 1.005-.7h1.228v.64c-.209.514-.648.797-1.243.797zm4.958-4.095c.662 0 1.102-.342 1.117-.967h-.38c-.015.394-.313.64-.737.64-.425 0-.722-.246-.73-.64h-.38c.015.625.447.967 1.11.967zm-1.78 4.474h.477l2.606-3.111v3.111h.528v-3.915h-.469l-2.613 3.111v-3.111h-.528v3.916zm7.88-3.915h-3.491v.469h1.481v3.447h.529v-3.447h1.481v-.47zm2.112-.03c-.618 0-1.198.194-1.593.528l.238.395c.32-.283.797-.462 1.303-.462.73 0 1.109.365 1.109 1.035v.239h-1.243c-1.124 0-1.511.506-1.511 1.109 0 .677.543 1.139 1.429 1.139.648 0 1.109-.246 1.348-.648v.61h.506v-2.426c0-1.013-.573-1.52-1.586-1.52zm-.186 3.566c-.625 0-.99-.283-.99-.737 0-.402.246-.7 1.005-.7h1.228v.64c-.208.514-.647.797-1.243.797z" fill="#9F9F9F"/><g clip-path="url(#clip0)" fill="#F3F2F2"><path d="M47.786 13.852c-.829-.765-2.072-1.113-3.591-1.113h-5.18V24.99h2.763v-3.48h2.417c1.519 0 2.762-.418 3.59-1.184.83-.765 1.244-1.88 1.244-3.341 0-1.323-.415-2.367-1.243-3.133zm-2.003 4.804c-.414.348-1.036.557-1.795.557h-2.28v-4.177h2.28c.76 0 1.38.14 1.795.487.414.348.621.835.621 1.532 0 .696-.207 1.253-.621 1.6zm8.081-5.917h-2.762V24.99h2.762V12.74zm13.672 0H64.29l-2.555 3.759-2.555-3.76h-3.176l4.074 5.987-4.42 6.265h3.246l2.831-4.037 2.831 4.037h3.315l-4.42-6.404 4.075-5.847zm4.972 7.239h5.87v-2.297h-5.87v-2.645H79v-2.297h-9.254V24.99h9.46v-2.297h-6.698v-2.715zm11.946-7.239H81.69V24.99h7.942v-2.366h-5.18v-9.885zm9.875 0h-2.763V24.99h2.763V12.74zm12.016.626c-.967-.556-2.072-.835-3.315-.835-1.243 0-2.348.279-3.314.835-.967.557-1.796 1.323-2.348 2.297-.553.975-.829 2.02-.829 3.203 0 1.183.276 2.297.829 3.202.552.974 1.38 1.74 2.348 2.297.966.557 2.071.835 3.314.835 1.243 0 2.348-.278 3.315-.835.967-.557 1.795-1.323 2.348-2.297.552-.975.828-2.019.828-3.202 0-1.184-.276-2.228-.828-3.202a5.771 5.771 0 00-2.348-2.298zm-.069 7.449a3.634 3.634 0 01-1.312 1.392c-.553.348-1.174.487-1.865.487-.69 0-1.312-.209-1.864-.557a4.408 4.408 0 01-1.381-1.392c-.346-.626-.484-1.253-.484-1.949 0-.696.138-1.392.484-1.95a3.34 3.34 0 011.381-1.391c.552-.348 1.174-.488 1.864-.488.691 0 1.312.14 1.865.488.552.348 1.036.835 1.312 1.392.345.626.483 1.253.483 1.949 0 .766-.138 1.462-.483 2.019zm13.81-8.075v7.935l-5.87-7.935h-2.486V24.99h2.625v-7.866l5.869 7.866h2.486V12.74h-2.624zM12.706 3.968l12.637 7.379v-1.74l-12.637-7.38L.07 9.538 0 9.607v1.74l12.706-7.38z"/><path d="M27.76 22.972l1.519-.905-.07-14.688L16.574 0l-1.589.905 12.707 7.379.069 14.688zM5.387 15.245l-1.52.835L3.8 30.838l12.637 7.379.069.07 1.52-.906-12.638-7.448V15.245z"/><path d="M14.225 7.588l-1.519-.836L.07 14.062l-.069.07v14.687l1.588.905V14.966l12.637-7.378zm17.333.835l.07 14.757-12.638 7.38 1.45.904 12.637-7.31.07-.069V9.327l-1.589-.904z"/><path d="M7.803 26.87v1.81l12.706 7.378.069-.07 12.499-7.378.069-.07V26.8l-12.637 7.38-12.706-7.31z"/><path d="M16.503 23.18l-3.038 1.95v2.088l3.038-2.019 3.108 2.019V25.13l-3.108-1.95zm-3.038-4.664v2.02l3.038 2.018 3.108-2.019v-2.019l-3.108 1.95-3.038-1.95zm7.735-6.821l-3.315 1.531v3.69l1.726 1.113v-3.69l3.315-1.53-1.727-1.114zm-6.009 1.531l-3.314-1.531-1.727 1.113 3.315 1.532v3.69l1.726-1.115v-3.689zM7.803 21.51l3.245 1.531 1.796-1.113-3.315-1.532v-3.69l-1.726 1.115v3.689zm17.541-3.69l-1.796-1.113v3.69l-3.245 1.53 1.726 1.114 3.315-1.531v-3.69z"/></g><defs><clipPath id="clip0"><path fill="#fff" d="M0 0h122.918v38.286H0z"/></clipPath></defs></svg>
